static/logos/stripe-glyph-color.svg

<svg width="100" height="42" viewBox="0 0 100 42" fill="none" xmlns="http://www.w3.org/2000/svg">
<g clip-path="url(#clip0_1_887)">
<path fill-rule="evenodd" clip-rule="evenodd" d="M99.9983 21.5001C99.9983 14.3889 96.5538 8.77783 89.9705 8.77783C83.3594 8.77783 79.3594 14.3889 79.3594 21.4445C79.3594 29.8056 84.0816 34.0278 90.8594 34.0278C94.1649 34.0278 96.6649 33.2778 98.5538 32.2223V26.6667C96.6649 27.6112 94.4983 28.1945 91.7483 28.1945C89.0538 28.1945 86.6649 27.2501 86.3594 23.9723H99.9427C99.9427 23.6112 99.9983 22.1667 99.9983 21.5001ZM86.276 18.8612C86.276 15.7223 88.1927 14.4167 89.9427 14.4167C91.6371 14.4167 93.4427 15.7223 93.4427 18.8612H86.276Z" fill="#635BFF"/>
<path fill-rule="evenodd" clip-rule="evenodd" d="M68.6354 8.77783C65.9132 8.77783 64.1632 10.0556 63.191 10.9445L62.8299 9.22228H56.7188V41.6111L63.6632 40.1389L63.691 32.2778C64.691 33 66.1632 34.0278 68.6076 34.0278C73.5799 34.0278 78.1076 30.0278 78.1076 21.2223C78.0799 13.1667 73.4965 8.77783 68.6354 8.77783ZM66.9688 27.9167C65.3299 27.9167 64.3576 27.3334 63.691 26.6112L63.6632 16.3056C64.3854 15.5001 65.3854 14.9445 66.9688 14.9445C69.4965 14.9445 71.2465 17.7778 71.2465 21.4167C71.2465 25.1389 69.5243 27.9167 66.9688 27.9167Z" fill="#635BFF"/>
<path fill-rule="evenodd" clip-rule="evenodd" d="M47.1641 7.13889L54.1363 5.63889V0L47.1641 1.47222V7.13889Z" fill="#635BFF"/>
<path d="M54.1363 9.24994H47.1641V33.5556H54.1363V9.24994Z" fill="#635BFF"/>
<path fill-rule="evenodd" clip-rule="evenodd" d="M39.6944 11.3055L39.25 9.24996H33.25V33.5556H40.1944V17.0833C41.8333 14.9444 44.6111 15.3333 45.4722 15.6388V9.24996C44.5833 8.91662 41.3333 8.30551 39.6944 11.3055Z" fill="#635BFF"/>
<path fill-rule="evenodd" clip-rule="evenodd" d="M25.8056 3.22223L19.0278 4.66667L19 26.9167C19 31.0278 22.0833 34.0555 26.1944 34.0555C28.4722 34.0555 30.1389 33.6389 31.0556 33.1389V27.5C30.1667 27.8611 25.7778 29.1389 25.7778 25.0278V15.1667H31.0556V9.25001H25.7778L25.8056 3.22223Z" fill="#635BFF"/>
<path fill-rule="evenodd" clip-rule="evenodd" d="M7.02778 16.3056C7.02778 15.2223 7.91667 14.8056 9.38889 14.8056C11.5 14.8056 14.1667 15.4445 16.2778 16.5834V10.0556C13.9722 9.13894 11.6944 8.77783 9.38889 8.77783C3.75 8.77783 0 11.7223 0 16.6389C0 24.3056 10.5556 23.0834 10.5556 26.3889C10.5556 27.6667 9.44444 28.0834 7.88889 28.0834C5.58333 28.0834 2.63889 27.1389 0.305556 25.8612V32.4723C2.88889 33.5834 5.5 34.0556 7.88889 34.0556C13.6667 34.0556 17.6389 31.1945 17.6389 26.2223C17.6111 17.9445 7.02778 19.4167 7.02778 16.3056Z" fill="#635BFF"/>
</g>
<defs>
<clipPath id="clip0_1_887">
<rect width="100" height="41.6667" fill="white"/>
</clipPath>
</defs>
</svg>

<svg xmlns="http://www.w3.org/2000/svg" width="152.381" height="64" fill="none" viewBox="0 0 100 42"><g fill="#635BFF" clip-path="url(#a)"><path fill-rule="evenodd" d="M99.998 21.5c0-7.111-3.444-12.722-10.028-12.722-6.61 0-10.61 5.61-10.61 12.667 0 8.36 4.722 12.583 11.5 12.583 3.305 0 5.805-.75 7.694-1.806v-5.555c-1.89.944-4.056 1.527-6.806 1.527-2.694 0-5.083-.944-5.389-4.222h13.584c0-.36.055-1.805.055-2.472Zm-13.722-2.639c0-3.139 1.917-4.444 3.667-4.444 1.694 0 3.5 1.305 3.5 4.444h-7.167ZM68.635 8.778c-2.722 0-4.472 1.278-5.444 2.166l-.361-1.722h-6.111v32.39l6.944-1.473.028-7.861c1 .722 2.472 1.75 4.917 1.75 4.972 0 9.5-4 9.5-12.806-.028-8.055-4.612-12.444-9.473-12.444ZM66.97 27.917c-1.64 0-2.611-.584-3.278-1.306l-.028-10.305c.722-.806 1.722-1.362 3.306-1.362 2.528 0 4.278 2.834 4.278 6.473 0 3.722-1.723 6.5-4.278 6.5ZM47.164 7.139l6.972-1.5V0l-6.972 1.472V7.14Z" clip-rule="evenodd"/><path d="M54.136 9.25h-6.972v24.306h6.972V9.25Z"/><path fill-rule="evenodd" d="M39.694 11.306 39.25 9.25h-6v24.306h6.944V17.083c1.64-2.139 4.417-1.75 5.278-1.444V9.25c-.889-.333-4.139-.944-5.778 2.056ZM25.806 3.222l-6.778 1.445L19 26.917c0 4.11 3.083 7.139 7.194 7.139 2.278 0 3.945-.417 4.862-.917V27.5c-.89.361-5.278 1.639-5.278-2.472v-9.861h5.278V9.25h-5.278l.028-6.028ZM7.028 16.306c0-1.084.889-1.5 2.36-1.5 2.112 0 4.779.639 6.89 1.777v-6.527c-2.306-.917-4.584-1.278-6.89-1.278C3.75 8.778 0 11.722 0 16.638c0 7.668 10.556 6.445 10.556 9.75 0 1.279-1.112 1.695-2.667 1.695-2.306 0-5.25-.944-7.583-2.222v6.611a19.256 19.256 0 0 0 7.583 1.584c5.778 0 9.75-2.861 9.75-7.834-.028-8.277-10.611-6.805-10.611-9.916Z" clip-rule="evenodd"/></g><defs><clipPath id="a"><path fill="#fff" d="M0 0h100v41.667H0z"/></clipPath></defs></svg>
